communes/58.svg

<?xml version="1.0" encoding="UTF-8" standalone="no"?>
<!-- Created with Inkscape (http://www.inkscape.org/) -->
<svg
   xmlns:svg="http://www.w3.org/2000/svg"
   xmlns="http://www.w3.org/2000/svg"
   version="1.0"
   width="193.38628"
   height="226.52193"
   id="svg2780">
  <defs
     id="defs2782" />
  <g
     transform="translate(-27.974369,-813.30596)"
     id="layer1">
    <path
       d="M 28.974369,814.30596 L 32.454115,960.50625 C 34.939642,1064.9351 214.39536,1064.9351 216.8809,960.50625 L 220.36064,814.30596 L 28.974369,814.30596 z"
       id="path3282"
       style="fill:#f0e539;fill-opacity:1;fill-rule:evenodd;stroke:#000000;stroke-width:2;stroke-linecap:butt;stroke-miterlimit:4;stroke-dashoffset:0;stroke-opacity:1" />
    <path
       d="M 48.305206,883.77947 C 41.036561,887.12723 33.202024,877.3165 41.897534,870.84026 C 36.249336,862.05579 46.88306,852.74281 54.234699,866.15888 C 57.670646,862.98833 61.021669,861.05619 65.508252,859.86835 C 62.318746,840.56072 54.74646,830.92893 47.664605,823.61591 C 61.084295,826.779 68.952038,838.86582 72.794908,848.21427 C 76.65605,857.60717 82.223674,863.09882 96.946113,855.80605 C 95.459626,844.05652 96.849878,826.58017 103.07422,822.04722 C 102.86245,829.41042 102.38811,832.69095 105.12631,847.51806 C 107.86048,862.3234 128.74841,861.7816 132.10815,849.87966 C 135.50048,837.86227 151.45889,827.24899 151.89188,819.67594 C 157.91617,829.26275 143.0301,840.91646 141.73228,851.47646 C 140.30132,863.11984 167.42578,859.03657 170.31312,853.65043 C 177.64337,839.97631 192.35687,839.76376 209.61037,822.04722 C 205.49092,843.99716 180.58343,849.22275 180.25106,859.5224 C 179.92272,869.69749 202.5632,870.46128 210.80516,884.94691 C 199.05991,877.82333 182.54192,878.78541 172.27756,868.01347 C 171.21778,866.90128 169.20822,866.09144 167.29281,867.00669 C 161.30107,869.86979 142.4276,869.52352 135.97965,864.27454 C 126.64021,871.00567 110.82881,868.88862 102.73636,864.33599 C 94.442886,869.46077 81.698341,869.55529 75.026114,866.29908 C 67.623908,869.41473 62.46912,872.53173 59.689397,874.68075 C 67.779271,889.55089 54.267653,890.46961 48.305206,883.77947 z"
       id="path2257"
       style="fill:#000000;fill-opacity:1;fill-rule:evenodd;stroke:none;stroke-width:1px;stroke-linecap:butt;stroke-linejoin:miter;stroke-opacity:1" />
    <path
       d="M 50.77387,946.73192 C 42.09456,949.72702 37.963018,939.91629 44.189865,934.67438 C 38.718,928.34644 49.175391,916.57693 55.821697,928.935 C 59.257644,925.76445 65.603329,923.30699 69.387581,921.41014 C 71.445165,920.37877 70.314281,917.01909 69.960815,915.45528 C 66.957639,902.16862 72.337812,895.84439 67.76658,877.22271 C 76.448189,880.63517 75.961057,904.99594 79.803927,914.34439 C 83.665069,923.73729 89.601967,922.68008 95.725834,921.93617 C 98.225226,921.63255 102.25845,920.79703 101.50719,916.08169 C 99.478812,903.35041 103.95788,880.99181 109.26727,877.12519 C 108.18269,884.61308 108.79591,906.03213 112.31685,915.3724 C 115.92382,924.94091 130.88331,922.87541 134.89922,912.13564 C 140.63305,896.80156 158.31815,889.92548 156.50678,878.86121 C 165.89761,893.41211 147.01566,903.42029 145.0826,915.48691 C 144.17306,921.16447 143.80027,921.10062 152.98559,923.01302 C 162.26666,924.94536 169.36937,920.93285 171.47441,917.60924 C 182.60248,900.03928 199.37842,897.5842 211.02103,890.466 C 211.51497,898.32638 182.23093,911.86165 182.02325,923.28348 C 181.8133,934.82995 211.76859,939.41273 211.28251,952.40212 C 205.5222,944.28105 184.68816,945.49617 174.79786,932.97862 C 173.84545,931.77321 172.20588,930.63089 170.29047,931.54614 C 164.29873,934.40924 141.22351,934.13601 134.77556,928.88703 C 125.81018,934.24661 113.13885,932.7316 106.79201,929.05177 C 98.498548,934.17655 86.712753,936.32272 79.133423,930.68359 C 77.720239,929.63216 75.275858,930.48563 73.594917,931.13933 C 68.044472,933.29784 63.586303,936.33639 61.452728,937.98587 C 70.866142,949.85834 55.501985,953.0694 50.77387,946.73192 z"
       id="use2392"
       style="fill:#000000;fill-opacity:1;fill-rule:evenodd;stroke:none;stroke-width:1px;stroke-linecap:butt;stroke-linejoin:miter;stroke-opacity:1" />
    <path
       d="M 69.749709,1009.4317 C 63.636288,1014.3669 54.837331,1005.3829 62.001678,999.21258 C 52.111226,990.46903 70.866142,978.94541 72.342767,993.34875 C 75.17369,990.32793 77.75831,988.98579 81.454866,987.85406 C 74.837026,976.93957 77.324409,952.90589 70.367396,946.06297 C 82.546236,948.70259 85.701396,969.69266 88.194027,978.25188 C 91.235152,988.69452 107.61472,991.09396 107.03453,983.18021 C 105.65706,964.39196 110.09899,950.38182 115.2273,946.06297 C 113.68128,954.20057 114.13301,964.28293 116.38905,978.40971 C 118.64177,992.51573 136.6906,990.14484 139.14875,980.30709 C 143.27848,963.77951 160.67423,955.89673 160.0335,946.06297 C 167.24133,955.07228 149.76475,970.43733 149.1942,981.49604 C 148.62579,992.63744 165.93415,989.15653 169.03934,984.42875 C 181.93659,964.79213 194.88189,964.839 201.41687,954.56764 C 202.13745,966.75277 183.56595,975.63354 179.05484,986.49305 C 174.4996,997.45881 192.30156,994.34688 193.23196,1007.899 C 186.42526,1000.9595 184.08974,1006.2997 171.8922,997.40801 C 170.78268,996.5992 168.83433,995.66496 167.25619,996.53698 C 162.31952,999.26488 147.66201,999.28761 142.34945,994.28661 C 134.65456,1000.6998 120.11759,1000.2698 113.36194,995.05042 C 106.70516,1000.5503 95.360724,999.55996 90.905151,997.22812 C 87.065091,995.2184 81.419548,998.7153 79.129297,1000.7628 C 89.328655,1009.6331 75.036309,1016.9291 69.749709,1009.4317 z"
       id="use2394"
       style="fill:#000000;fill-opacity:1;fill-rule:evenodd;stroke:none;stroke-width:1px;stroke-linecap:butt;stroke-linejoin:miter;stroke-opacity:1" />
  </g>
</svg>

<?xml version="1.0" encoding="UTF-8"?>
<svg version="1.0" viewBox="0 0 193.39 226.52" xmlns="http://www.w3.org/2000/svg">
<g transform="translate(-27.974 -813.31)" fill-rule="evenodd">
<path d="m28.974 814.31 3.4797 146.2c2.4855 104.43 181.94 104.43 184.43 0l3.4797-146.2h-191.39z" fill="#f0e539" stroke="#000" stroke-width="2"/>
<path d="m48.305 883.78c-7.2686 3.3478-15.103-6.463-6.4077-12.939-5.6482-8.7845 4.9855-18.097 12.337-4.6814 3.4359-3.1706 6.787-5.1027 11.274-6.2905-3.1895-19.308-10.762-28.939-17.844-36.252 13.42 3.1631 21.287 15.25 25.13 24.598 3.8611 9.3929 9.4288 14.885 24.151 7.5918-1.4865-11.75-0.096235-29.226 6.1281-33.759-0.21177 7.3632-0.68611 10.644 2.0521 25.471 2.7342 14.805 23.622 14.264 26.982 2.3616 3.3923-12.017 19.351-22.631 19.784-30.204 6.0243 9.5868-8.8618 21.241-10.16 31.801-1.431 11.643 25.694 7.5601 28.581 2.174 7.3302-13.674 22.044-13.887 39.297-31.603-4.1194 21.95-29.027 27.176-29.359 37.475-0.32834 10.175 22.312 10.939 30.554 25.425-11.745-7.1236-28.263-6.1615-38.528-16.933-1.0598-1.1122-3.0693-1.922-4.9848-1.0068-5.9917 2.8631-24.865 2.5168-31.313-2.7322-9.3394 6.7311-25.151 4.6141-33.243 0.06145-8.2935 5.1248-21.038 5.2193-27.71 1.9631-7.4022 3.1156-12.557 6.2326-15.337 8.3817 8.0899 14.87-5.4217 15.789-11.384 9.0987z"/>
<path d="m50.774 946.73c-8.6793 2.9951-12.811-6.8156-6.584-12.058-5.4719-6.3279 4.9855-18.097 11.632-5.7394 3.4359-3.1706 9.7816-5.628 13.566-7.5249 2.0576-1.0314 0.9267-4.391 0.57323-5.9549-3.0032-13.287 2.377-19.611-2.1942-38.233 8.6816 3.4125 8.1945 27.773 12.037 37.122 3.8611 9.3929 9.798 8.3357 15.922 7.5918 2.4994-0.30362 6.5326-1.1391 5.7814-5.8545-2.0284-12.731 2.4507-35.09 7.7601-38.956-1.0846 7.4879-0.47136 28.907 3.0496 38.247 3.607 9.5685 18.566 7.503 22.582-3.2368 5.7338-15.334 23.419-22.21 21.608-33.274 9.3908 14.551-9.4911 24.559-11.424 36.626-0.90954 5.6776-1.2823 5.6137 7.903 7.5261 9.2811 1.9323 16.384-2.0802 18.489-5.4038 11.128-17.57 27.904-20.025 39.547-27.143 0.49394 7.8604-28.79 21.396-28.998 32.817-0.20995 11.546 29.745 16.129 29.259 29.119-5.7603-8.1211-26.594-6.906-36.485-19.424-0.95241-1.2054-2.592-2.3477-4.5074-1.4325-5.9917 2.8631-29.067 2.5899-35.515-2.6591-8.9654 5.3596-21.637 3.8446-27.984 0.16474-8.2935 5.1248-20.079 7.271-27.659 1.6318-1.4132-1.0514-3.8576-0.19796-5.5385 0.45574-5.5504 2.1585-10.009 5.1971-12.142 6.8465 9.4134 11.872-5.9507 15.084-10.679 8.746z"/>
<path d="m69.75 1009.4c-6.1134 4.9352-14.912-4.0488-7.748-10.219-9.8905-8.7436 8.8645-20.267 10.341-5.8638 2.8309-3.0208 5.4155-4.363 9.1121-5.4947-6.6178-10.914-4.1305-34.948-11.087-41.791 12.179 2.6396 15.334 23.63 17.827 32.189 3.0411 10.443 19.421 12.842 18.841 4.9283-1.3775-18.788 3.0645-32.798 8.1928-37.117-1.546 8.1376-1.0943 18.22 1.1618 32.347 2.2527 14.106 20.302 11.735 22.76 1.8974 4.1297-16.528 21.525-24.41 20.885-34.244 7.2078 9.0093-10.269 24.374-10.839 35.433-0.56841 11.141 16.74 7.6605 19.845 2.9327 12.897-19.637 25.843-19.59 32.378-29.861 0.72058 12.185-17.851 21.066-22.362 31.925-4.5552 10.966 13.247 7.8538 14.177 21.406-6.8067-6.9395-9.1422-1.5993-21.34-10.491-1.1095-0.80881-3.0579-1.743-4.636-0.87103-4.9367 2.7279-19.594 2.7506-24.907-2.2504-7.6949 6.4132-22.232 5.9832-28.988 0.76381-6.6568 5.4999-18.001 4.5095-22.457 2.1777-3.8401-2.0097-9.4856 1.4872-11.776 3.5347 10.199 8.8703-4.093 16.166-9.3796 8.6689z"/>
</g>
</svg>
